X: 1152
M: 2/4
L: 1/16
K: D
e3c d3B | A3B/c/ E3E | A3^G FGAB | A2^G2"^da Capo"A2 ]
d3d c2BA | B3B A2z2 | G3A/G/ F2d2 | E2GF E2z2 |\
=c3c cBB2 | d3d d2c2 | d3d ec BG | FAGE "^da Capo"D2 |]

